fs/cellular_5g_24_regular.svg

<svg viewBox="0 0 24 24" fill="none" xmlns="http://www.w3.org/2000/svg" height="1em" width="1em">
  <path d="M12.896 3.61899L12.8965 3.61994C13.1065 3.97703 12.9872 4.43667 12.6301 4.64658C12.2817 4.8514 11.8356 4.74281 11.6192 4.40574C11.6165 4.40237 11.6114 4.3963 11.6038 4.38822C11.5796 4.36258 11.5306 4.31723 11.4504 4.27242C11.3034 4.19034 10.9826 4.07111 10.3852 4.18074C9.97732 4.2556 9.76612 4.51481 9.63605 4.84771C9.56976 5.01737 9.53447 5.18769 9.51652 5.31897C9.50772 5.38326 9.50355 5.4347 9.50161 5.46746C9.50064 5.48375 9.50023 5.49514 9.50007 5.50088L9.5 5.50385V6.74998C9.5 7.30227 9.94771 7.74998 10.5 7.74998H10.75C11.216 7.74998 11.6075 7.4313 11.7185 7H11.25C10.8358 7 10.5 6.66421 10.5 6.25C10.5 5.83579 10.8358 5.5 11.25 5.5H12.4912L12.5 5.49995C12.9142 5.49995 13.25 5.83574 13.25 6.24995V6.74998C13.25 8.13069 12.1307 9.24998 10.75 9.24998H10.5C9.11929 9.24998 8 8.13069 8 6.74998V5.49871L8 5.49722L8.00002 5.49373L8.00011 5.48475L8.00066 5.45902C8.00123 5.43853 8.00229 5.41137 8.00425 5.37841C8.00816 5.31266 8.01571 5.22275 8.03035 5.1157C8.05927 4.90431 8.11772 4.612 8.23891 4.30182C8.4838 3.67506 9.02252 2.90578 10.1145 2.70538C11.0269 2.53793 11.7062 2.69718 12.1818 2.96285C12.4129 3.09193 12.5808 3.23776 12.6958 3.35986C12.7532 3.42082 12.7976 3.47604 12.8304 3.52071C12.8468 3.54307 12.8604 3.56289 12.8714 3.57958C12.8769 3.58793 12.8817 3.59551 12.8859 3.60226L12.8917 3.61175L12.8942 3.61601L12.8954 3.61802L12.896 3.61899Z" fill="#212121"/>
  <path d="M3.25467 3.41718C3.29687 3.03735 3.61792 2.75 4.00008 2.75H6.50008C6.91429 2.75 7.25008 3.08579 7.25008 3.5C7.25008 3.91421 6.91429 4.25 6.50008 4.25H4.67136L4.6067 4.83195L4.62296 4.829C5.99089 4.58028 7.25008 5.63117 7.25008 7.02153C7.25008 8.25228 6.25236 9.25 5.02161 9.25H4.80286C4.05056 9.25 3.34804 8.87402 2.93074 8.24808L2.87604 8.16603C2.64628 7.82138 2.73941 7.35573 3.08405 7.12596C3.4287 6.8962 3.89435 6.98933 4.12412 7.33397L4.17882 7.41603C4.31792 7.62467 4.55209 7.75 4.80286 7.75H5.02161C5.42393 7.75 5.75008 7.42385 5.75008 7.02153C5.75008 6.56703 5.33846 6.2235 4.89129 6.3048L3.88424 6.4879C3.65111 6.53029 3.41166 6.46001 3.23841 6.29836C3.06516 6.1367 2.9785 5.90268 3.00467 5.66718L3.25467 3.41718Z" fill="#212121"/>
  <path d="M11.75 12C12.1297 12 12.4435 12.2822 12.4932 12.6483L12.5 12.75V20.25C12.5 20.6642 12.1642 21 11.75 21C11.3703 21 11.0565 20.7179 11.0068 20.3518L11 20.25V12.75C11 12.3358 11.3358 12 11.75 12Z" fill="#212121"/>
  <path d="M15.75 9.00004C16.1297 9.00004 16.4435 9.28219 16.4932 9.64826L16.5 9.75004V20.25C16.5 20.6642 16.1642 21 15.75 21C15.3703 21 15.0565 20.7179 15.0068 20.3518L15 20.25V9.75004C15 9.33582 15.3358 9.00004 15.75 9.00004Z" fill="#212121"/>
  <path d="M3.75 18C4.1297 18 4.44349 18.2822 4.49315 18.6483L4.5 18.75V20.25C4.5 20.6642 4.16421 21 3.75 21C3.3703 21 3.05651 20.7179 3.00685 20.3518L3 20.25V18.75C3 18.3358 3.33579 18 3.75 18Z" fill="#212121"/>
  <path d="M19.7427 6.00004C20.1224 5.99639 20.4389 6.27526 20.4921 6.64054L20.5 6.74216V20.2432C20.504 20.6571 20.1715 20.9958 19.7573 20.9999C19.3776 21.0035 19.0611 20.7246 19.0079 20.3594L19 20.2577V6.7567C18.996 6.34284 19.3285 6.00409 19.7427 6.00004Z" fill="#212121"/>
  <path d="M7.75 15C8.1297 15 8.44349 15.2822 8.49315 15.6483L8.5 15.75V20.2488C8.5 20.663 8.16421 20.9988 7.75 20.9988C7.3703 20.9988 7.05651 20.7166 7.00685 20.3505L7 20.2488V15.75C7 15.3358 7.33579 15 7.75 15Z" fill="#212121"/>
</svg>

<svg viewBox="0 0 24 24" fill="none" xmlns="http://www.w3.org/2000/svg" height="1em" width="1em">
  <path d="M12.896 3.619a.75.75 0 0 1-1.277.787.64.64 0 0 0-.169-.133c-.147-.083-.467-.202-1.065-.092-.408.075-.619.334-.749.667A2.1 2.1 0 0 0 9.5 5.5v1.25a1 1 0 0 0 1 1h.25a1 1 0 0 0 .969-.75h-.469a.75.75 0 0 1 0-1.5h1.25a.75.75 0 0 1 .75.75v.5a2.5 2.5 0 0 1-2.5 2.5h-.25A2.5 2.5 0 0 1 8 6.75V5.459l.004-.08a3.6 3.6 0 0 1 .235-1.077c.245-.627.784-1.396 1.876-1.597.912-.167 1.591-.008 2.067.258.23.129.399.275.514.397a1.727 1.727 0 0 1 .19.242l.006.01.002.004.001.002.001.001Zm-9.641-.202A.75.75 0 0 1 4 2.75h2.5a.75.75 0 0 1 0 1.5H4.671l-.064.582.016-.003a2.228 2.228 0 1 1 .399 4.421h-.22a2.25 2.25 0 0 1-1.871-1.002l-.055-.082a.75.75 0 0 1 1.248-.832l.055.082a.75.75 0 0 0 .624.334h.219a.728.728 0 1 0-.13-1.445l-1.008.183a.75.75 0 0 1-.88-.82l.25-2.25ZM11.75 12a.75.75 0 0 1 .743.648l.007.102v7.5a.75.75 0 0 1-1.493.102L11 20.25v-7.5a.75.75 0 0 1 .75-.75Zm4-3a.75.75 0 0 1 .743.648l.007.102v10.5a.75.75 0 0 1-1.493.102L15 20.25V9.75a.75.75 0 0 1 .75-.75Zm-12 9a.75.75 0 0 1 .743.648l.007.102v1.5a.75.75 0 0 1-1.493.102L3 20.25v-1.5a.75.75 0 0 1 .75-.75ZM19.743 6a.75.75 0 0 1 .75.64l.007.102v13.501a.75.75 0 0 1-1.492.116L19 20.258V6.757A.75.75 0 0 1 19.743 6ZM7.75 15a.75.75 0 0 1 .743.648l.007.102v4.499a.75.75 0 0 1-1.493.102L7 20.248V15.75a.75.75 0 0 1 .75-.75Z" fill="#212121"/>
</svg>
